X:138
T: KOMM LIEBER MAI UND MACHE
N: B0629
O: Europa, Mitteleuropa, Deutschland
R: Kinder -, Jahreszeiten - Lied, Fruehling
M: 6/8
L: 1/8
K: F
F | F2Ac2f | c3A2
F | B2BBcB | A2z3
F | F2Ac2f | c3A2
F | G2GGAG | F2z3
A | B2AGAB | c3Az
f | feddc=B | c2z3
F | F2Ac2f | f2dB2
d | cdcBAG | F2z3

